overrides/.icons/aoe/sphere.svg

<?xml version="1.0" encoding="UTF-8"?>
<svg id="svg1" version="1.1" viewBox="0 0 24 24" xmlns="http://www.w3.org/2000/svg">
 <path id="path1" d="m12 1.5c-5.775 0-10.5 4.725-10.5 10.5s4.725 10.5 10.5 10.5 10.5-4.725 10.5-10.5-4.725-10.5-10.5-10.5m0 12.6c-4.641 0-8.4-0.9345-8.4-2.1 0-1.155 3.759-2.1 8.4-2.1s8.4 0.945 8.4 2.1c0 1.1655-3.759 2.1-8.4 2.1m0-10.5c3.5385 0 6.5625 2.1945 7.8015 5.3025-1.575-0.651-4.011-1.1025-7.8015-1.1025-2.31 0-5.5335 0.1995-7.8015 1.1025 1.239-3.108 4.263-5.3025 7.8015-5.3025m0 16.8c-3.5385 0-6.5625-2.1945-7.8015-5.3025 1.575 0.651 4.011 1.1025 7.8015 1.1025 2.31 0 5.5335-0.1995 7.8015-1.1025-1.239 3.108-4.263 5.3025-7.8015 5.3025z"/>
</svg>

<?xml version="1.0" encoding="UTF-8" standalone="no"?>
<svg
   viewBox="0 0 24 24"
   version="1.1"
   id="svg1"
   sodipodi:docname="sphere.svg"
   inkscape:version="1.3.2 (091e20e, 2023-11-25, custom)"
   xmlns:inkscape="http://www.inkscape.org/namespaces/inkscape"
   xmlns:sodipodi="http://sodipodi.sourceforge.net/DTD/sodipodi-0.dtd"
   xmlns="http://www.w3.org/2000/svg"
   xmlns:svg="http://www.w3.org/2000/svg">
  <defs
     id="defs1" />
  <sodipodi:namedview
     id="namedview1"
     pagecolor="#ffffff"
     bordercolor="#111111"
     borderopacity="1"
     inkscape:showpageshadow="0"
     inkscape:pageopacity="0"
     inkscape:pagecheckerboard="1"
     inkscape:deskcolor="#d1d1d1"
     inkscape:zoom="21.625"
     inkscape:cx="11.976879"
     inkscape:cy="12"
     inkscape:window-width="1366"
     inkscape:window-height="697"
     inkscape:window-x="-8"
     inkscape:window-y="-8"
     inkscape:window-maximized="1"
     inkscape:current-layer="svg1" />
  <path
     d="M 12,1.5 C 6.225,1.5 1.5,6.225 1.5,12 1.5,17.775 6.225,22.5 12,22.5 17.775,22.5 22.5,17.775 22.5,12 22.5,6.225 17.775,1.5 12,1.5 m 0,12.6 C 7.359,14.1 3.6,13.1655 3.6,12 3.6,10.845 7.359,9.9 12,9.9 c 4.641,0 8.4,0.945 8.4,2.1 0,1.1655 -3.759,2.1 -8.4,2.1 M 12,3.6 c 3.5385,0 6.5625,2.1945 7.8015,5.3025 C 18.2265,8.2515 15.7905,7.8 12,7.8 9.69,7.8 6.4665,7.9995 4.1985,8.9025 5.4375,5.7945 8.4615,3.6 12,3.6 m 0,16.8 C 8.4615,20.4 5.4375,18.2055 4.1985,15.0975 5.7735,15.7485 8.2095,16.2 12,16.2 c 2.31,0 5.5335,-0.1995 7.8015,-1.1025 C 18.5625,18.2055 15.5385,20.4 12,20.4 Z"
     id="path1"
     style="stroke-width:1" />
</svg>
